build/img/social__inst.svg

<svg width="30" height="30" viewBox="0 0 30 30" fill="none" xmlns="http://www.w3.org/2000/svg">
<path d="M18 7H12C9.239 7 7 9.239 7 12V18C7 20.761 9.239 23 12 23H18C20.761 23 23 20.761 23 18V12C23 9.239 20.761 7 18 7ZM21.5 18C21.5 19.93 19.93 21.5 18 21.5H12C10.07 21.5 8.5 19.93 8.5 18V12C8.5 10.07 10.07 8.5 12 8.5H18C19.93 8.5 21.5 10.07 21.5 12V18Z" fill="white"/>
<path d="M15 11C12.791 11 11 12.791 11 15C11 17.209 12.791 19 15 19C17.209 19 19 17.209 19 15C19 12.791 17.209 11 15 11ZM15 17.5C13.622 17.5 12.5 16.378 12.5 15C12.5 13.621 13.622 12.5 15 12.5C16.378 12.5 17.5 13.621 17.5 15C17.5 16.378 16.378 17.5 15 17.5Z" fill="white"/>
<path d="M19.2986 11.233C19.593 11.233 19.8316 10.9944 19.8316 10.7C19.8316 10.4056 19.593 10.167 19.2986 10.167C19.0043 10.167 18.7656 10.4056 18.7656 10.7C18.7656 10.9944 19.0043 11.233 19.2986 11.233Z" fill="white"/>
<path d="M29.25 15C29.25 22.8701 22.8701 29.25 15 29.25C7.12994 29.25 0.75 22.8701 0.75 15C0.75 7.12994 7.12994 0.75 15 0.75C22.8701 0.75 29.25 7.12994 29.25 15Z" stroke="white" stroke-width="1.5"/>
</svg>

<svg width="30" height="30" fill="none" xmlns="http://www.w3.org/2000/svg"><path d="M18 7h-6a5 5 0 00-5 5v6a5 5 0 005 5h6a5 5 0 005-5v-6a5 5 0 00-5-5zm3.5 11c0 1.93-1.57 3.5-3.5 3.5h-6c-1.93 0-3.5-1.57-3.5-3.5v-6c0-1.93 1.57-3.5 3.5-3.5h6c1.93 0 3.5 1.57 3.5 3.5v6z" fill="#fff"/><path d="M15 11a4 4 0 100 8 4 4 0 000-8zm0 6.5a2.503 2.503 0 01-2.5-2.5c0-1.379 1.122-2.5 2.5-2.5s2.5 1.121 2.5 2.5c0 1.378-1.122 2.5-2.5 2.5zm4.299-6.267a.533.533 0 100-1.066.533.533 0 000 1.066z" fill="#fff"/><path d="M29.25 15c0 7.87-6.38 14.25-14.25 14.25S.75 22.87.75 15 7.13.75 15 .75 29.25 7.13 29.25 15z" stroke="#fff" stroke-width="1.5"/></svg>
